X: 9
T: Bullet Game Song (a)
C: Anon.
%%abc-version 2.0
%%abcx-abcm2ps-target-version 5.9.1 (29 Sep 2008)
%%abc-creator hum2abc beta
%%abcx-conversion-date 2020/08/10 20:56:09
%%abc-copyright Electronic Copyright 2000 David Huron
%%abc-edited-by David Huron
%%abcx-initial-encoding-date August 27, 2000
%%humdrum-veritas 2185078411
%%humdrum-veritas-data 973245376
%%linebreak <none>
%%barnumbers 0
L: 1/4
M: 2/4
Q: 1/4=144
K: A clef=bass
A,B,/ A,/ | 
A,2 | 
A,F,/ E,/ | 
E,z | 
A,B,/ A,/ | 
A,2 | 
A,F,/ E,/ | 
E,z | 
CA, | 
B,2 | 
B,A,/ F,/ | 
E,z | 
A,B,/ A,/ | 
A,2 | 
A,F,/ E,/ | 
E,z | 
B,A,/ A,/ | 
B,2 | 
B,/ A,/A, | 
A,z | 
A,F,/ E,/ | 
E,z | 
A,B,/ A,/ | 
B,2 | 
B,A,/ F,/ | 
E,z | 
B,A, | 
A,2 | 
A,F,/ E,/ | 
E,z | 
A,B,/ A,/ | 
B,2 | 
B,A,/ F,/ | 
E,z | 
B,A, | 
A,2 | 
A,F,/ E,/ | 
E,z | 
B,/ B,/ A,/ A,/ | 
B,2 | 
B,/ A,/A, | 
A,2 | 
A,F,/ E,/ | 
E,E, | 
A,A, | 
B,2 | 
B,A, | 
A,2 | 
B,B,/ A,/ | 
A,2 | 
A,F,/ E,/ | 
E,z |]  


